assets/img/icons/mountain.svg

<svg xmlns="http://www.w3.org/2000/svg" width="1007" height="1024">
    <defs>
        <clipPath clipPathUnits="userSpaceOnUse" id="cp1">
            <path d="M0 0h1007v1024H0z" />
        </clipPath>
    </defs>
    <style>
        .shp0 {
            fill: #000
        }
    </style>
    <g id="Page 1" clip-path="url(#cp1)">
        <path id="Path 1" fill-rule="evenodd" class="shp0"
            d="M1003.84 998.52c4.71 6.4 3.94 15.59-1.81 21.08-6.9 6.6-18.35 5.64-24.01-2.05L749.63 707.59l-21.02 21.03c-6.26 6.26-16.41 6.26-22.68 0l-57.07-57.08-57.08 57.08c-6.26 6.26-16.41 6.26-22.67 0l-57.08-57.08-57.07 57.08c-6.26 6.26-16.41 6.26-22.68 0l-57.07-57.08-57.08 57.08c-6.26 6.26-16.41 6.26-22.67 0l-21.02-21.03-228.39 309.96c-5.32 7.22-15.89 8.59-22.9 3.03-6.67-5.28-7.96-15.22-2.92-22.05l239.45-324.97L496 352.84V16.03C496 7.18 503.18 0 512.03 0c8.86 0 16.04 7.18 16.04 16.03v18.18h35.28c8.85 0 16.03 7.17 16.03 16.03 0 8.86-7.18 16.04-16.03 16.04h-35.28v138.96h207.38V66.28H631.76c-8.86 0-16.03-7.18-16.03-16.04s7.17-16.03 16.03-16.03h119.72c8.86 0 16.04 7.17 16.04 16.03v69.49h137.9c13.97 0 21.23 17.47 11.33 27.37l-74.18 74.18 74.19 74.17c9.9 9.9 2.64 27.38-11.34 27.38H665.97c-8.85 0-16.03-7.18-16.03-16.04v-69.48H528.08v115.53l85.08 115.47c5.19 7.03 3.64 17.24-3.39 22.42-7.04 5.18-17.24 3.64-22.42-3.39l-75.31-102.2-218.36 296.34 13.12 13.12 57.07-57.07c6.27-6.26 16.42-6.26 22.68 0l57.08 57.07 57.07-57.07c6.26-6.26 16.41-6.26 22.68 0l57.07 57.07 57.08-57.07c6.26-6.26 16.41-6.26 22.67 0l57.08 57.07 13.12-13.12-105.25-142.83c-5.25-7.13-3.73-17.16 3.4-22.42 7.13-5.24 17.17-3.73 22.42 3.4l352.87 478.89zM682 237.31v53.45h184.7l-58.14-58.15c-6.26-6.26-6.26-16.41 0-22.67l58.15-58.15h-99.19v69.49c0 8.85-7.18 16.03-16.04 16.03H682z" />
        <path id="Path 2" fill-rule="evenodd" class="shp0"
            d="M136.83 135.76c0-37.13 30.21-67.35 67.34-67.35.36 0 .72.01 1.08.01 0-.36-.01-.72-.01-1.07C205.24 30.21 235.45 0 272.59 0c37.13 0 67.34 30.21 67.34 67.35 0 .35 0 .71-.01 1.07 37.55-.52 68.43 29.85 68.43 67.34 0 37.13-30.21 67.35-67.35 67.35H204.17c-37.13 0-67.34-30.22-67.34-67.35zm32.07 0c0 19.45 15.82 35.28 35.27 35.28H341c19.45 0 35.28-15.83 35.28-35.28 0-19.45-15.83-35.28-35.28-35.28-5.32 0-10.42 1.16-15.18 3.43-6.06 2.9-13.5 1.62-18.25-3.13-4.76-4.75-6.03-12.19-3.13-18.25 2.27-4.76 3.42-9.87 3.42-15.18 0-19.45-15.82-35.28-35.27-35.28-19.45 0-35.28 15.83-35.28 35.28 0 5.32 1.15 10.42 3.43 15.18 2.9 6.06 1.62 13.5-3.13 18.25s-12.19 6.03-18.25 3.13a35.018 35.018 0 00-15.19-3.43c-19.45 0-35.27 15.83-35.27 35.28zm769.66 307.86c0 .36-.01.72-.01 1.08.36-.01.72-.01 1.07-.01 37.14 0 67.35 30.21 67.35 67.35 0 37.13-30.21 67.34-67.35 67.34H802.8c-37.14 0-67.35-30.21-67.35-67.34 0-37.14 30.21-67.35 67.35-67.35.36 0 .71 0 1.07.01v-1.08c0-37.13 30.21-67.34 67.34-67.34s67.35 30.21 67.35 67.34zm-14.12 36.57c-6.06 2.9-13.5 1.62-18.25-3.13-4.76-4.75-6.03-12.19-3.13-18.26 2.27-4.75 3.43-9.86 3.43-15.18 0-19.45-15.83-35.27-35.28-35.27-19.45 0-35.28 15.82-35.28 35.27 0 5.32 1.16 10.43 3.43 15.18 2.9 6.07 1.63 13.51-3.13 18.26-4.75 4.75-12.18 6.03-18.25 3.13-4.76-2.28-9.86-3.43-15.18-3.43-19.45 0-35.28 15.83-35.28 35.28 0 19.45 15.83 35.27 35.28 35.27h136.82c19.46 0 35.28-15.82 35.28-35.27 0-19.45-15.82-35.28-35.28-35.28-5.31 0-10.42 1.15-15.18 3.43z" />
        <path id="Path 3" fill-rule="evenodd" class="shp0"
            d="M0 580.45c0-37.49 30.88-67.86 68.42-67.34v-1.07c0-37.14 30.21-67.35 67.34-67.35s67.34 30.21 67.34 67.35v1.07h1.07c37.14 0 67.35 30.21 67.35 67.34s-30.21 67.35-67.35 67.35H67.35C30.21 647.8 0 617.58 0 580.45zm32.07 0c0 19.45 15.82 35.28 35.28 35.28h136.82c19.46 0 35.28-15.83 35.28-35.28 0-19.45-15.82-35.28-35.28-35.28-5.32 0-10.42 1.16-15.18 3.43-6.02 2.88-13.53 1.59-18.25-3.13-4.72-4.72-6.01-12.23-3.13-18.25 2.27-4.76 3.43-9.86 3.43-15.18 0-19.45-15.83-35.28-35.28-35.28-19.45 0-35.28 15.83-35.28 35.28 0 5.32 1.16 10.42 3.43 15.18 2.9 6.07 1.62 13.5-3.13 18.25s-12.19 6.03-18.25 3.13a34.975 34.975 0 00-15.18-3.43c-19.46 0-35.28 15.83-35.28 35.28z" />
    </g>
</svg>

<svg xmlns="http://www.w3.org/2000/svg" viewBox="0 0 1007 1024" width="1007" height="1024">
	<defs>
		<clipPath clipPathUnits="userSpaceOnUse" id="cp1">
			<path d="M0 0L1007 0L1007 1024L0 1024Z" />
		</clipPath>
	</defs>
	<style>
		tspan { white-space:pre }
		.shp0 { fill: #000000 } 
	</style>
	<g id="Page 1" clip-path="url(#cp1)">
		<path id="Path 1" fill-rule="evenodd" class="shp0" d="M1003.84 998.52C1008.55 1004.92 1007.78 1014.11 1002.03 1019.6C995.13 1026.2 983.68 1025.24 978.02 1017.55L749.63 707.59L728.61 728.62C722.35 734.88 712.2 734.88 705.93 728.62L648.86 671.54L591.78 728.62C585.52 734.88 575.37 734.88 569.11 728.62L512.03 671.54L454.96 728.62C448.7 734.88 438.55 734.88 432.28 728.62L375.21 671.54L318.13 728.62C311.87 734.88 301.72 734.88 295.46 728.62L274.44 707.59L46.05 1017.55C40.73 1024.77 30.16 1026.14 23.15 1020.58C16.48 1015.3 15.19 1005.36 20.23 998.53L259.68 673.56L496 352.84L496 16.03C496 7.18 503.18 0 512.03 0C520.89 0 528.07 7.18 528.07 16.03L528.07 34.21L563.35 34.21C572.2 34.21 579.38 41.38 579.38 50.24C579.38 59.1 572.2 66.28 563.35 66.28L528.07 66.28L528.07 205.24L735.45 205.24L735.45 66.28L631.76 66.28C622.9 66.28 615.73 59.1 615.73 50.24C615.73 41.38 622.9 34.21 631.76 34.21L751.48 34.21C760.34 34.21 767.52 41.38 767.52 50.24L767.52 119.73L905.42 119.73C919.39 119.73 926.65 137.2 916.75 147.1L842.57 221.28L916.76 295.45C926.66 305.35 919.4 322.83 905.42 322.83L665.97 322.83C657.12 322.83 649.94 315.65 649.94 306.79L649.94 237.31L528.08 237.31L528.08 352.84L613.16 468.31C618.35 475.34 616.8 485.55 609.77 490.73C602.73 495.91 592.53 494.37 587.35 487.34L512.04 385.14L293.68 681.48L306.8 694.6L363.87 637.53C370.14 631.27 380.29 631.27 386.55 637.53L443.63 694.6L500.7 637.53C506.96 631.27 517.11 631.27 523.38 637.53L580.45 694.6L637.53 637.53C643.79 631.27 653.94 631.27 660.2 637.53L717.28 694.6L730.4 681.48L625.15 538.65C619.9 531.52 621.42 521.49 628.55 516.23C635.68 510.99 645.72 512.5 650.97 519.63L1003.84 998.52ZM682 237.31L682 290.76L866.7 290.76L808.56 232.61C802.3 226.35 802.3 216.2 808.56 209.94L866.71 151.79L767.52 151.79L767.52 221.28C767.52 230.13 760.34 237.31 751.48 237.31L682 237.31Z" />
		<path id="Path 2" fill-rule="evenodd" class="shp0" d="M136.83 135.76C136.83 98.63 167.04 68.41 204.17 68.41C204.53 68.41 204.89 68.42 205.25 68.42C205.25 68.06 205.24 67.7 205.24 67.35C205.24 30.21 235.45 0 272.59 0C309.72 0 339.93 30.21 339.93 67.35C339.93 67.7 339.93 68.06 339.92 68.42C377.47 67.9 408.35 98.27 408.35 135.76C408.35 172.89 378.14 203.11 341 203.11L204.17 203.11C167.04 203.11 136.83 172.89 136.83 135.76ZM168.9 135.76C168.9 155.21 184.72 171.04 204.17 171.04L341 171.04C360.45 171.04 376.28 155.21 376.28 135.76C376.28 116.31 360.45 100.48 341 100.48C335.68 100.48 330.58 101.64 325.82 103.91C319.76 106.81 312.32 105.53 307.57 100.78C302.81 96.03 301.54 88.59 304.44 82.53C306.71 77.77 307.86 72.66 307.86 67.35C307.86 47.9 292.04 32.07 272.59 32.07C253.14 32.07 237.31 47.9 237.31 67.35C237.31 72.67 238.46 77.77 240.74 82.53C243.64 88.59 242.36 96.03 237.61 100.78C232.86 105.53 225.42 106.81 219.36 103.91C214.6 101.64 209.49 100.48 204.17 100.48C184.72 100.48 168.9 116.31 168.9 135.76ZM938.56 443.62C938.56 443.98 938.55 444.34 938.55 444.7C938.91 444.69 939.27 444.69 939.62 444.69C976.76 444.69 1006.97 474.9 1006.97 512.04C1006.97 549.17 976.76 579.38 939.62 579.38L802.8 579.38C765.66 579.38 735.45 549.17 735.45 512.04C735.45 474.9 765.66 444.69 802.8 444.69C803.16 444.69 803.51 444.69 803.87 444.7C803.87 444.34 803.87 443.98 803.87 443.62C803.87 406.49 834.08 376.28 871.21 376.28C908.34 376.28 938.56 406.49 938.56 443.62ZM924.44 480.19C918.38 483.09 910.94 481.81 906.19 477.06C901.43 472.31 900.16 464.87 903.06 458.8C905.33 454.05 906.49 448.94 906.49 443.62C906.49 424.17 890.66 408.35 871.21 408.35C851.76 408.35 835.93 424.17 835.93 443.62C835.93 448.94 837.09 454.05 839.36 458.8C842.26 464.87 840.99 472.31 836.23 477.06C831.48 481.81 824.05 483.09 817.98 480.19C813.22 477.91 808.12 476.76 802.8 476.76C783.35 476.76 767.52 492.59 767.52 512.04C767.52 531.49 783.35 547.31 802.8 547.31L939.62 547.31C959.08 547.31 974.9 531.49 974.9 512.04C974.9 492.59 959.08 476.76 939.62 476.76C934.31 476.76 929.2 477.91 924.44 480.19Z" />
		<path id="Path 3" fill-rule="evenodd" class="shp0" d="M0 580.45C0 542.96 30.88 512.59 68.42 513.11C68.42 512.76 68.42 512.4 68.42 512.04C68.42 474.9 98.63 444.69 135.76 444.69C172.89 444.69 203.1 474.9 203.1 512.04C203.1 512.4 203.1 512.76 203.1 513.11C203.46 513.11 203.81 513.11 204.17 513.11C241.31 513.11 271.52 543.32 271.52 580.45C271.52 617.58 241.31 647.8 204.17 647.8L67.35 647.8C30.21 647.8 0 617.58 0 580.45ZM32.07 580.45C32.07 599.9 47.89 615.73 67.35 615.73L204.17 615.73C223.63 615.73 239.45 599.9 239.45 580.45C239.45 561 223.63 545.17 204.17 545.17C198.85 545.17 193.75 546.33 188.99 548.6C182.97 551.48 175.46 550.19 170.74 545.47C166.02 540.75 164.73 533.24 167.61 527.22C169.88 522.46 171.04 517.36 171.04 512.04C171.04 492.59 155.21 476.76 135.76 476.76C116.31 476.76 100.48 492.59 100.48 512.04C100.48 517.36 101.64 522.46 103.91 527.22C106.81 533.29 105.53 540.72 100.78 545.47C96.03 550.22 88.59 551.5 82.53 548.6C77.77 546.33 72.67 545.17 67.35 545.17C47.89 545.17 32.07 561 32.07 580.45Z" />
	</g>
</svg>
